Pods/ProtonCore-UIFoundations/libraries/UIFoundations/Sources/Assets.xcassets/Images/IconSet/ic-users.imageset/ic-users.svg

<svg width="24" height="24" viewBox="0 0 24 24" fill="none" xmlns="http://www.w3.org/2000/svg">
<path fill-rule="evenodd" clip-rule="evenodd" d="M8.25 10.5C9.49264 10.5 10.5 9.49264 10.5 8.25C10.5 7.00736 9.49264 6 8.25 6C7.00736 6 6 7.00736 6 8.25C6 9.49264 7.00736 10.5 8.25 10.5ZM8.25 12C10.3211 12 12 10.3211 12 8.25C12 6.17893 10.3211 4.5 8.25 4.5C6.17893 4.5 4.5 6.17893 4.5 8.25C4.5 10.3211 6.17893 12 8.25 12ZM11.0642 15C11.5673 15 12.0405 15.2612 12.3127 15.7003L13.4509 17.5363C13.5152 17.64 13.5149 17.748 13.4589 17.85C13.4032 17.9512 13.3194 18 13.2118 18H3.28825C3.18057 18 3.09676 17.9512 3.04113 17.85C2.98509 17.748 2.98485 17.64 3.04913 17.5363L4.18732 15.7003C4.45953 15.2612 4.93267 15 5.43577 15H11.0642ZM2.91242 14.91C3.45619 14.0329 4.4098 13.5 5.43577 13.5H11.0642C12.0902 13.5 13.0438 14.0329 13.5876 14.91L14.7258 16.746C15.469 17.9449 14.6141 19.5 13.2118 19.5H3.28825C1.88594 19.5 1.03101 17.9449 1.77424 16.746L2.91242 14.91ZM18.0319 13.5H15V15H18.0319C18.6757 15 19.2907 15.2917 19.7087 15.8037L20.8943 17.2561C21.1516 17.5712 20.9066 18 20.5722 18H16.4695V19.5H20.5722C22.2312 19.5 23.0751 17.5555 22.0563 16.3075L20.8706 14.8551C20.1718 13.9992 19.1325 13.5 18.0319 13.5ZM18 9C18 9.82843 17.3284 10.5 16.5 10.5C15.6716 10.5 15 9.82843 15 9C15 8.17157 15.6716 7.5 16.5 7.5C17.3284 7.5 18 8.17157 18 9ZM19.5 9C19.5 10.6569 18.1569 12 16.5 12C14.8431 12 13.5 10.6569 13.5 9C13.5 7.34315 14.8431 6 16.5 6C18.1569 6 19.5 7.34315 19.5 9Z" fill="#0C0C14"/>
</svg>

<svg xmlns="http://www.w3.org/2000/svg" width="24" height="24" viewBox="0 0 24 24">
  <g class="ic-users">
    <path fill-rule="evenodd" d="M8.25 10.5a2.25 2.25 0 1 0 0-4.5 2.25 2.25 0 0 0 0 4.5Zm0 1.5a3.75 3.75 0 1 0 0-7.5 3.75 3.75 0 0 0 0 7.5Zm2.814 3c.503 0 .976.261 1.249.7l1.138 1.836a.296.296 0 0 1 .008.314.267.267 0 0 1-.247.15H3.288a.267.267 0 0 1-.247-.15.296.296 0 0 1 .008-.314L4.187 15.7c.273-.439.746-.7 1.249-.7h5.628Zm-8.152-.09a2.97 2.97 0 0 1 2.524-1.41h5.628a2.97 2.97 0 0 1 2.524 1.41l1.138 1.836c.743 1.199-.112 2.754-1.514 2.754H3.288c-1.402 0-2.257-1.555-1.514-2.754l1.138-1.836Zm15.12-1.41H15V15h3.032c.644 0 1.259.292 1.677.804l1.185 1.452c.258.315.013.744-.322.744H16.47v1.5h4.102c1.66 0 2.503-1.945 1.484-3.192l-1.185-1.453a3.666 3.666 0 0 0-2.84-1.355ZM18 9a1.5 1.5 0 1 1-3 0 1.5 1.5 0 0 1 3 0Zm1.5 0a3 3 0 1 1-6 0 3 3 0 0 1 6 0Z" class="Icon"/>
  </g>
</svg>
